Origami/22x22/apps/KoboDeluxe.svg

<svg width="22" height="22" version="1.1" viewBox="0 0 22 22" xmlns="http://www.w3.org/2000/svg">
 <path d="m11.011516 1.4999992c-0.66814-0.0294317-1.297996 0.2913958-1.632408 0.8314939l-8.3163463 13.429804c-0.3233969 1.299419 0.6381108 2.265948 2.076195 2.9747 2.6975034 1.329449 7.0718323 1.751919 7.7881543 1.763147 1.181099 0.02571 4.760176-0.528192 7.315587-1.567078 1.943731-0.790212 3.295206-1.861016 2.548647-3.170769l-8.316347-13.429804c-0.304223-0.4913493-0.855653-0.8046504-1.463482-0.8314939z" style="opacity:.2"/>
 <path d="m11.011516 1c-0.66814-0.0294317-1.297996 0.2913958-1.632408 0.8314939l-8.3163463 13.429803c-0.3233969 1.299419 0.6381108 2.265948 2.076195 2.9747 2.6975034 1.329449 7.0718323 1.751919 7.7881543 1.763147 1.181099 0.02571 4.760176-0.528192 7.315587-1.567078 1.943731-0.790212 3.295206-1.861016 2.548647-3.170769l-8.316347-13.429803c-0.304223-0.4913493-0.855653-0.8046504-1.463482-0.8314939z" style="fill:#8e8e8e"/>
 <path d="m11 1.5c-0.02077 0-0.03988 0.00544-0.06055 0.00586-0.151391 0.00305-0.298389 0.02044-0.443359 0.044922-0.463539 0.1077907-0.871122 0.3838365-1.117188 0.78125l-1.378903 2.2265618v13.941406c0 2 1 3 3 3s3-1 3-3v-13.705078l-1.525391-2.4628907c-0.301166-0.4864119-0.844732-0.7958629-1.445312-0.828125-0.0081-7.89e-5 -0.01535-0.00389-0.02344-0.00391-2e-3 -3.8e-6 -0.0039 0-0.0059 0z" style="opacity:.2"/>
 <path d="m11 1c-0.02077 0-0.03988 0.00544-0.06055 0.00586-0.151391 0.00305-0.298389 0.02044-0.443359 0.044922-0.463539 0.1077907-0.871122 0.3838365-1.117188 0.78125l-1.378903 2.2265618v13.941406c0 2 1 3 3 3s3-1 3-3v-13.705078l-1.525391-2.4628907c-0.301166-0.4864119-0.844732-0.7958629-1.445312-0.828125-0.008076-7.89e-5 -0.015346-0.0038906-0.023438-0.0039062-0.001989-3.8e-6 -0.003868 0-0.005859 0z" style="fill:#686868"/>
 <rect x="4" y="8.5" width="2" height="12" rx="1.5" ry="1.5" style="opacity:.2"/>
 <path d="m11.011719 1c-0.66814-0.029432-1.298401 0.2919332-1.632813 0.8320312l-8.316406 13.429688c-0.065457 0.263008-0.066322 0.507785-0.033203 0.74414 0.010385-0.0815 0.012227-0.159858 0.033203-0.24414l8.316406-13.429688c0.334412-0.540098 0.964673-0.8614629 1.632813-0.8320312 0.607829 0.026844 1.158667 0.340682 1.46289 0.8320312l8.316407 13.429688c0.09029 0.158396 0.148108 0.311557 0.179687 0.46289 0.06071-0.30527 0.01284-0.625123-0.179687-0.96289l-8.316407-13.429688c-0.304223-0.4913492-0.855061-0.8051877-1.46289-0.8320312z" style="fill:#ffffff;opacity:.1"/>
 <rect x="4" y="8" width="2" height="12" rx="1.5" ry="1.5" style="fill:#afafb1"/>
 <rect x="16" y="8.5" width="2" height="12" rx="1.5" ry="1.5" style="opacity:.2"/>
 <rect x="16" y="8" width="2" height="12" rx="1.5" ry="1.5" style="fill:#afafb1"/>
 <ellipse cx="11" cy="13.5" rx="2" ry="2.5" style="fill:#64b0ff"/>
 <path d="m5.0000001 7.9999992c-0.554 0-1 0.669-1 1.4999998v0.5c0-0.831 0.446-1.4999998 1-1.4999998s1 0.6689998 1 1.4999998v-0.5c0-0.8309998-0.446-1.4999998-1-1.4999998z" style="fill:#ffffff;opacity:.2"/>
 <path d="m17 7.9999992c-0.554 0-1 0.669-1 1.4999998v0.5c0-0.831 0.446-1.4999998 1-1.4999998s1 0.6689998 1 1.4999998v-0.5c0-0.8309998-0.446-1.4999998-1-1.4999998z" style="fill:#ffffff;opacity:.2"/>
</svg>

<svg xmlns="http://www.w3.org/2000/svg" width="22" height="22" version="1.1" viewBox="0 0 22 22">
 <path style="opacity:0.2" d="M 11.011516,1.4999992 C 10.343376,1.4705675 9.71352,1.791395 9.379108,2.3314931 L 1.0627617,15.761297 c -0.3233969,1.299419 0.6381108,2.265948 2.076195,2.9747 2.6975034,1.329449 7.0718323,1.751919 7.7881543,1.763147 1.181099,0.02571 4.760176,-0.528192 7.315587,-1.567078 1.943731,-0.790212 3.295206,-1.861016 2.548647,-3.170769 L 12.474998,2.3314931 C 12.170775,1.8401438 11.619345,1.5268427 11.011516,1.4999992 Z"/>
 <path style="fill:#8e8e8e" d="M 11.011516,1 C 10.343376,0.9705683 9.71352,1.2913958 9.379108,1.8314939 L 1.0627617,15.261297 c -0.3233969,1.299419 0.6381108,2.265948 2.076195,2.9747 2.6975034,1.329449 7.0718323,1.751919 7.7881543,1.763147 1.181099,0.02571 4.760176,-0.528192 7.315587,-1.567078 1.943731,-0.790212 3.295206,-1.861016 2.548647,-3.170769 L 12.474998,1.8314939 C 12.170775,1.3401446 11.619345,1.0268435 11.011516,1 Z"/>
 <path style="opacity:0.2" d="M 11,1.5 C 10.97923,1.5 10.96012,1.50544 10.93945,1.50586 10.788059,1.50891 10.641061,1.5263 10.496091,1.550782 10.032552,1.6585727 9.624969,1.9346185 9.378903,2.332032 L 8,4.5585938 V 18.5 c 0,2 1,3 3,3 2,0 3,-1 3,-3 V 4.7949219 L 12.474609,2.3320312 c -0.301166,-0.4864119 -0.844732,-0.7958629 -1.445312,-0.828125 -0.0081,-7.89e-5 -0.01535,-0.00389 -0.02344,-0.00391 -0.002,-3.8e-6 -0.0039,0 -0.0059,0 z"/>
 <path style="fill:#686868" d="M 11,1 C 10.97923,1 10.96012,1.00544 10.93945,1.00586 10.788059,1.00891 10.641061,1.0263 10.496091,1.050782 10.032552,1.1585727 9.624969,1.4346185 9.378903,1.832032 L 8,4.0585938 V 18 c 0,2 1,3 3,3 2,0 3,-1 3,-3 V 4.2949219 L 12.474609,1.8320312 C 12.173443,1.3456193 11.629877,1.0361683 11.029297,1.0039062 11.021221,1.0038273 11.013951,1.0000156 11.005859,1 11.00387,0.9999962 11.001991,1 11,1 Z"/>
 <rect style="opacity:0.2" width="2" height="12" x="4" y="8.5" rx="1.5" ry="1.5"/>
 <path style="opacity:0.1;fill:#ffffff" d="M 11.011719,1 C 10.343579,0.970568 9.713318,1.2919332 9.378906,1.8320312 L 1.0625,15.261719 c -0.065457,0.263008 -0.066322,0.507785 -0.033203,0.74414 0.010385,-0.0815 0.012227,-0.159858 0.033203,-0.24414 L 9.378906,2.3320312 C 9.713318,1.7919332 10.343579,1.4705683 11.011719,1.5 c 0.607829,0.026844 1.158667,0.340682 1.46289,0.8320312 l 8.316407,13.4296878 c 0.09029,0.158396 0.148108,0.311557 0.179687,0.46289 0.06071,-0.30527 0.01284,-0.625123 -0.179687,-0.96289 L 12.474609,1.8320312 C 12.170386,1.340682 11.619548,1.0268435 11.011719,1 Z"/>
 <rect style="fill:#afafb1" width="2" height="12" x="4" y="8" rx="1.5" ry="1.5"/>
 <rect style="opacity:0.2" width="2" height="12" x="16" y="8.5" rx="1.5" ry="1.5"/>
 <rect style="fill:#afafb1" width="2" height="12" x="16" y="8" rx="1.5" ry="1.5"/>
 <ellipse style="fill:#64b0ff" cx="11" cy="13.5" rx="2" ry="2.5"/>
 <path style="opacity:0.2;fill:#ffffff" d="m 5.0000001,7.9999992 c -0.554,0 -1,0.669 -1,1.4999998 v 0.5 c 0,-0.831 0.446,-1.4999998 1,-1.4999998 0.554,0 1,0.6689998 1,1.4999998 v -0.5 c 0,-0.8309998 -0.446,-1.4999998 -1,-1.4999998 z"/>
 <path style="opacity:0.2;fill:#ffffff" d="m 17,7.9999992 c -0.554,0 -1,0.669 -1,1.4999998 v 0.5 c 0,-0.831 0.446,-1.4999998 1,-1.4999998 0.554,0 1,0.6689998 1,1.4999998 v -0.5 C 18,8.6689992 17.554,7.9999992 17,7.9999992 Z"/>
</svg>
